!!!OTL: 55. Skotshne
!!!Genre:	Skotshne
!!!Mode:	Altered Dorian
!!!Listening/dance:	listening
!!!:	*G:frey; *C:; *G:frey
!!!One_Mode:	no
**kern
*I"P1
*clefG2
*k[b-]
*g:dor
*M2/4
*>A
=1
8ggL
(8gJ
8b-L)
(8gJ
=2
8ddL)
(8gJ
8b-L)
(8gJ
=3
8ggL)
(8gJ
8b-L)
(8gJ
=4
8ddL)
(8gJ
8b-L)
8gJ
=5
16ddLL
16cc#X
16dd
16eeJJ
16ffLL
16ee
16dd
16cc#JJ
=6
2dd
=7
8b-TL
8ddJ
8ddL
(8qdd/
16cc#XL)
16b-JJ
=8
8cc#
(8qee/
4dd)
8g
=9
8b-TL
8ddJ
8ddL
(8qdd/
16cc#XL)
16b-JJ
=10
8b-L
8aJ
16cc#XLL
16b-
16a
16gJJ
=11
(8b-L
8ddJ)
8ddL
(8qdd/
16cc#XL)
16b-JJ
=12
8cc#X
(8qee/
4dd)
8g
=13
8b-L
8ddJ
16ddLL
16cc#X
16b-
16aJJ
=14
4g
4r
*>bM
*G:frey
!LO:TX:a:i:t=G-freygish
=15!|:
*>B
*k[b-e-a-]
(16gLL
16a-)
(16g
16a-JJ)
16bnLL
16cc
16b
16a-JJ
=16
2g
=17
(16bnLL
16cc)
(16bn
16ccJJ)
16ddLL
16ee-
16dd
16ccJJ
=18
2dd
=19
16ddLL
16ee-
16ff#X
16ee-JJ
8ddL
(8qdd/
16ccL)
16bnJJ
=20
16bnLL
16cc
16dd
16ccJJ
8bnL
24a-L
24g
24fJJ
=21
(16fLL
16a-)
(16a-
16fJJ)
16fLL
16cc
16bn
16a-JJ
*>B1
=22
(16a-LL
16gJ)
8gJ
4r
*>B2
=:|!
(16a-LL
16gJ)
8gJ
16r
=23||
*>C
*>eM
*>bM
*C:
!LO:TX:a:i:t=C-major
16gLL
16cc
16ddJJ
=24||
*k[]
*C:
4.ee
16ddLL
16ccJJ
=25
16ddLL
16eeJ
8gJ
16r
16gLL
16ee
16ffJJ
=26
4.gg
16ffLL
16eeJJ
=27
16eeLL
16gg
16ff#X
16aaJJ
4gg
=28
8cccL
[8eeJ
16eeLL]
16aa
16gg
16ffJJ
=29
16eeLL
16ddJ
8ccJ
8r
8cc
=30
(16ddLL
16g)
(16dd
16gJJ)
16ddLL
16ff
16ee
16ddJJ
=31
(16ddLL
16ccJ)
8ccJ
4r
*>eM
*>bM
*G:frey
!LO:TX:a:i:t=G-freygish
=32||
*>D
*k[b-e-a-]
16ddLL
16bnJJ
4cc
(8qcc/
16bnLL)
16a-JJ
=33
8gL
8gJ
8ggL
8ggJ
=34
16ggLL
16ddJJ
4ee-
(8qee-/
16ddLL)
16ccJJ
=35
8ddL
8dd
8dd
8ddJ
=36
16bb-XLL
16ggJ
[8aa-J
16aa-LL]
16ffJ
[8ggJ
=37
16ggLL]
16ee-J
[8ffJ
16ffLL]
16ddJ
[8ee-J
=38
16ee-LL]
16cc
16dd
16ee-JJ
16ddLL
16cc
16bn
16a-JJ
=39
(16a-LL
16gJ)
8gJ
4r
*>eM
==
*-
